icons/sun-24.svg

<svg xmlns="http://www.w3.org/2000/svg" width="24" height="24" viewBox="0 0 24 24"><path d="M12 19a7 7 0 110-14 7 7 0 010 14zm0-1.5a5.5 5.5 0 100-11 5.5 5.5 0 100 11zm-5.657.157a.75.75 0 010 1.06l-1.768 1.768a.749.749 0 01-1.275-.326.749.749 0 01.215-.734l1.767-1.768a.75.75 0 011.061 0zM3.515 3.515a.75.75 0 011.06 0l1.768 1.768a.749.749 0 01-.326 1.275.749.749 0 01-.734-.215L3.515 4.575a.75.75 0 010-1.06zM12 0a.75.75 0 01.75.75v2.5a.75.75 0 01-1.5 0V.75A.75.75 0 0112 0zM4 12a.75.75 0 01-.75.75H.75a.75.75 0 010-1.5h2.5A.75.75 0 014 12zm8 8a.75.75 0 01.75.75v2.5a.75.75 0 01-1.5 0v-2.5A.75.75 0 0112 20zm12-8a.75.75 0 01-.75.75h-2.5a.75.75 0 010-1.5h2.5A.75.75 0 0124 12zm-6.343 5.657a.75.75 0 011.06 0l1.768 1.768a.751.751 0 01-.018 1.042.751.751 0 01-1.042.018l-1.768-1.767a.75.75 0 010-1.061zm2.828-14.142a.75.75 0 010 1.06l-1.768 1.768a.751.751 0 01-1.042-.018.751.751 0 01-.018-1.042l1.767-1.768a.75.75 0 011.061 0z"/></svg>

<svg xmlns="http://www.w3.org/2000/svg" width="24" height="24" viewBox="0 0 24 24">
  <defs/>
  <path d="M12,19 C8.134,19 5,15.866 5,12 C5,8.134 8.134,5 12,5 C15.866,5 19,8.134 19,12 C19,15.866 15.866,19 12,19 Z M12,17.5 C15.038,17.5 17.5,15.038 17.5,12 C17.5,8.962 15.038,6.5 12,6.5 C8.962,6.5 6.5,8.962 6.5,12 C6.5,15.038 8.962,17.5 12,17.5 Z M6.343,17.657 C6.635,17.95 6.635,18.424 6.343,18.717 L4.575,20.485 C4.388,20.686 4.106,20.768 3.841,20.7 C3.575,20.633 3.367,20.425 3.3,20.159 C3.232,19.894 3.314,19.612 3.515,19.425 L5.282,17.657 C5.575,17.364 6.05,17.364 6.343,17.657 Z M3.515,3.515 C3.808,3.223 4.282,3.223 4.575,3.515 L6.343,5.283 C6.544,5.47 6.626,5.752 6.558,6.017 C6.491,6.283 6.283,6.491 6.017,6.558 C5.752,6.626 5.47,6.544 5.283,6.343 L3.515,4.575 C3.223,4.282 3.223,3.808 3.515,3.515 Z M12,0 C12.414,0 12.75,0.336 12.75,0.75 L12.75,3.25 C12.75,3.664 12.414,4 12,4 C11.586,4 11.25,3.664 11.25,3.25 L11.25,0.75 C11.25,0.336 11.586,0 12,0 Z M4,12 C4,12.414 3.664,12.75 3.25,12.75 L0.75,12.75 C0.336,12.75 0,12.414 0,12 C0,11.586 0.336,11.25 0.75,11.25 L3.25,11.25 C3.664,11.25 4,11.586 4,12 Z M12,20 C12.414,20 12.75,20.336 12.75,20.75 L12.75,23.25 C12.75,23.664 12.414,24 12,24 C11.586,24 11.25,23.664 11.25,23.25 L11.25,20.75 C11.25,20.336 11.586,20 12,20 Z M24,12 C24,12.414 23.664,12.75 23.25,12.75 L20.75,12.75 C20.336,12.75 20,12.414 20,12 C20,11.586 20.336,11.25 20.75,11.25 L23.25,11.25 C23.664,11.25 24,11.586 24,12 Z M17.657,17.657 C17.95,17.365 18.424,17.365 18.717,17.657 L20.485,19.425 C20.76,19.721 20.752,20.181 20.467,20.467 C20.181,20.752 19.721,20.76 19.425,20.485 L17.657,18.718 C17.364,18.425 17.364,17.95 17.657,17.657 Z M20.485,3.515 C20.777,3.808 20.777,4.282 20.485,4.575 L18.717,6.343 C18.421,6.618 17.961,6.61 17.675,6.325 C17.39,6.039 17.382,5.579 17.657,5.283 L19.424,3.515 C19.717,3.222 20.192,3.222 20.485,3.515 Z"/>
</svg>
